X: 10073
T: ATHOL BROSE - Strathspey
R: strathspey
B: K\"ohler's Violin Repository, v.1, 1885 p.7 #3
F: http://www.archive.org/details/klersviolinrepos01edin
Z: 2011 John Chambers <jc:trillian.mit.edu>
M: C
L: 1/8
K: D
A |: F>D D/D/D (A,>D)D>G | F>D D/D/D (G/A/B) A>G | F>D D/D/D (A,>D)D>=F |[1 (E/=F/G)
(C>E) c>GE>G :|[2 (E/=F/G) (C>E) c>GE>C || D<(dd>c) d>ed>c | A<(dd>e) =f>de>c |
[1 A<(dd>c) d>ed>B | =c>dc>G E<CG>E :|[2 d<d(=f>d) (e>c)f>d | =c>dc>G E<CG>E |]

%%sep 2 1 500

